Numix-GalliumOS/scalable/devices/multimedia-player-symbolic.svg

<svg width="16" xmlns="http://www.w3.org/2000/svg" viewBox="0 0 16 16" height="16">
<g style="fill:#bebebe" transform="matrix(.5 0 0 .5 -4 -506.1811)">
<path style="line-height:normal;color:#000" d="M 18.65625,8 C 17.196167,8 16,9.19625 16,10.65625 L 16,37.3125 C 16,38.7726 17.196167,40 18.65625,40 L 29.3125,40 C 30.772583,40 32,38.7726 32,37.3125 L 32,10.65625 C 32,9.19625 30.772583,8 29.3125,8 L 18.65625,8 Z m 1,2 8.6875,0 C 29.26713,10 30,10.73287 30,11.65625 l 0,12.78125 c 0,0.92338 -0.73287,1.65625 -1.65625,1.65625 l -8.6875,0 C 18.73287,26.09375 18,25.36088 18,24.4375 L 18,11.65625 C 18,10.73287 18.73287,10 19.65625,10 Z M 24,28 c 2.761424,0 5,2.238576 5,5 0,2.761424 -2.238576,5 -5,5 -2.761424,0 -5,-2.238576 -5,-5 0,-2.761424 2.238576,-5 5,-5 z" transform="translate(0 1004.3622)"/>
<path d="m 25,33 c 0,0.552285 -0.447715,1 -1,1 -0.552285,0 -1,-0.447715 -1,-1 0,-0.552285 0.447715,-1 1,-1 0.552285,0 1,0.447715 1,1 z" transform="matrix(2 0 0 2 -24 971.3622)"/>
</g>
</svg>

<svg xmlns="http://www.w3.org/2000/svg" viewBox="0 0 16 16">
 <g transform="matrix(.5 0 0 .5 -4 -506.1811)" style="fill:#bebebe">
  <path d="m 18.656 8 c -1.46 0 -2.656 1.196 -2.656 2.656 l 0 26.656 c 0 1.46 1.196 2.688 2.656 2.688 l 10.656 0 c 1.46 0 2.688 -1.227 2.688 -2.688 l 0 -26.656 c 0 -1.46 -1.227 -2.656 -2.688 -2.656 l -10.656 0 m 1 2 8.688 0 c 0.923 0 1.656 0.733 1.656 1.656 l 0 12.781 c 0 0.923 -0.733 1.656 -1.656 1.656 l -8.688 0 c -0.923 0 -1.656 -0.733 -1.656 -1.656 l 0 -12.781 c 0 -0.923 0.733 -1.656 1.656 -1.656 m 4.344 18 c 2.761 0 5 2.239 5 5 0 2.761 -2.239 5 -5 5 -2.761 0 -5 -2.239 -5 -5 0 -2.761 2.239 -5 5 -5 z" transform="translate(0 1004.3622)" style="color:#000"/>
  <path d="m 25 33 c 0 0.552 -0.448 1 -1 1 -0.552 0 -1 -0.448 -1 -1 0 -0.552 0.448 -1 1 -1 0.552 0 1 0.448 1 1 z" transform="matrix(2 0 0 2 -24 971.3622)"/>
 </g>
</svg>
